public/editor-src/editor/icons/fa/file-waveform.svg

<svg xmlns="http://www.w3.org/2000/svg" viewBox="0 0 448 512"><!--! Font Awesome Free 6.4.0 by @fontawesome - https://fontawesome.com License - https://fontawesome.com/license/free (Icons: CC BY 4.0, Fonts: SIL OFL 1.1, Code: MIT License) Copyright 2023 Fonticons, Inc.--><path d="M96 0C60.7 0 32 28.7 32 64v224h112c6.1 0 11.6 3.4 14.3 8.8l17.7 35.4 49.7-99.4c2.7-5.4 8.3-8.8 14.3-8.8s11.6 3.4 14.3 8.8l27.6 55.2H352c8.8 0 16 7.2 16 16s-7.2 16-16 16h-80c-6.1 0-11.6-3.4-14.3-8.8L240 275.8l-49.7 99.4c-2.7 5.4-8.3 8.8-14.3 8.8s-11.6-3.4-14.3-8.8L134.1 320H32v128c0 35.3 28.7 64 64 64h256c35.3 0 64-28.7 64-64V160H288c-17.7 0-32-14.3-32-32V0H96zm192 0v128h128L288 0z"/></svg>

<svg xmlns="http://www.w3.org/2000/svg" viewBox="0 0 448 512"><!--! Font Awesome Free 6.4.0 by @fontawesome - https://fontawesome.com License - https://fontawesome.com/license/free (Icons: CC BY 4.0, Fonts: SIL OFL 1.1, Code: MIT License) Copyright 2023 Fonticons, Inc. --><path d="M96 0C60.7 0 32 28.7 32 64V288H144c6.1 0 11.6 3.4 14.3 8.8L176 332.2l49.7-99.4c2.7-5.4 8.3-8.8 14.3-8.8s11.6 3.4 14.3 8.8L281.9 288H352c8.8 0 16 7.2 16 16s-7.2 16-16 16H272c-6.1 0-11.6-3.4-14.3-8.8L240 275.8l-49.7 99.4c-2.7 5.4-8.3 8.8-14.3 8.8s-11.6-3.4-14.3-8.8L134.1 320H32V448c0 35.3 28.7 64 64 64H352c35.3 0 64-28.7 64-64V160H288c-17.7 0-32-14.3-32-32V0H96zM288 0V128H416L288 0z"/></svg>
